Sources/FrostedUI/Resources/Icons.xcassets/whopLogo20.imageset/whop-logo-20.svg

<svg width="20" height="20" viewBox="0 0 20 20" fill="none" xmlns="http://www.w3.org/2000/svg" data-fui-icon="true">
  <path
    d="M15.9365 5.90051C16.7417 5.90051 17.5638 6.49928 18 7.09973H17.9932L11.6924 13.3995C10.7596 14.3323 9.23258 14.3323 8.2998 13.3995L7.69727 12.797L13.3926 7.09973C13.4004 7.08957 13.6023 6.89277 13.6113 6.88391C14.1599 6.36217 14.8851 5.90055 15.9365 5.90051ZM10.2324 5.90051C11.0376 5.90054 11.8597 6.49926 12.2959 7.09973L7.14844 12.2482L4.84863 9.94836L7.69629 7.09973C7.70831 7.085 7.89998 6.89123 7.90723 6.88391C8.45578 6.36215 9.1809 5.90051 10.2324 5.90051ZM4.54395 5.90051C5.34869 5.90065 6.17126 6.49928 6.60742 7.09973L4.30371 9.40344L2 7.09973C2.00141 7.08971 2.21325 6.88913 2.21875 6.88391C2.7673 6.36215 3.49242 5.90051 4.54395 5.90051Z"
    fill="currentColor"
  />
</svg>

<svg xmlns="http://www.w3.org/2000/svg" width="20" height="20" fill="none" data-fui-icon="true" viewBox="0 0 20 20"><path fill="currentColor" d="M15.937 5.9c.805 0 1.627.6 2.063 1.2h-.007l-6.3 6.3a2.406 2.406 0 0 1-3.393 0l-.603-.603L13.393 7.1c.007-.01.21-.207.218-.216.549-.522 1.274-.983 2.326-.983m-5.705 0c.806 0 1.628.6 2.064 1.2l-5.148 5.148-2.3-2.3L7.697 7.1c.012-.015.204-.209.211-.216.549-.522 1.274-.983 2.325-.983m-5.688 0c.805 0 1.627.6 2.063 1.2L4.304 9.403 2 7.1c.001-.01.213-.21.219-.216.548-.522 1.273-.983 2.325-.983"/></svg>
